X: 07400
T: Red River Valley
B: Henry Ford's "Good Morning"
Z: 2011 John Chambers <jc:trillian.mit.edu>
R: march, reel
M: 2/4
L: 1/8
K: F
|: (CF) | "F"A-A A-A | "C7"A2 GA | "F"G F3- | F2 CF | "F"A-A FA |
"F"c-c BA | "C7"[G4-E4-C4-B,4-] | [GECB,]z (cB) | "F"A-A AG | "F7"[F2_E2C2] ([G_EC][AEC]) |
"Bb"cB- B-B  | D2 "Bdim7"(ED) | "F"C2 EF | "G7"G2 "C7"AG | "F"[F4-C4-A,4-] | [FCA,]z |]


%%sep 5 1 500

